X:1
T:Why I Love Jesus
T:Why I Love Jesus
T:Edwin Othello Excell, 1897
T:From Elisha Albright Hoffman, 1877
T:Public Domain Courtesy of the Cyber Hymnal™
T:Public Domain Courtesy of the Cyber Hymnal™
C:Edwin Othello Excell, 1897
Z:Public Domain
Z:Courtesy of the Cyber Hymnal™
%%score ( 1 2 ) ( 3 4 )
L:1/8
Q:1/4=93
M:3/4
K:Db
V:1 treble 
V:2 treble 
V:3 bass 
V:4 bass 
V:1
 [DF]>[EG] | [FA]3 [Fd] [Ac][GB] | [FA]2 [DF]2 D>[DE] | [DF] [DA]3 [CE]>[CA] | D4 [DF]>[EG] | %5
w: 1.~Would you|know why I love|Je- sus? Why He|is so dear to|me? ’Tis be-|
w: 2.~Would you|know why I love|Je- sus? Why He|is so dear to|me? ’Tis be-|
w: 3.~Would you|know why I love|Je- sus? Why He|is so dear to|me? ’Tis be-|
w: 4.~Would you|know why I love|Je- sus? Why He|is so dear to|me? ’Tis be-|
w: 5.~Would you|know why I love|Je- sus? Why He|is so dear to|me? ’Tis be-|
 [FA]3 [Fd] [Ac][GB] | [FA]2 [DF]2 D>[DE] | [DF] [DA]3 [CE]>[CA] | D4 || %9
w: cause my bless- èd|Sav- ior From my|sins hath set me|free.|
w: cause the blood of|Je- sus Full- y|saves and cleans- es|me.|
w: cause, a- mid temp-|ta- tion, He sup-|ports and strength- ens|me.|
w: cause, in ev- ery|con- flict, Je- sus|gives me vic- to-|ry.|
w: cause my friend and|Sav- ior He will|ev- er, ev- er|be.|
[M:4/4]"^Refrain" [FA]>[FA] | c4- [Gc]>[Gc] [GB]>[GA] | [GB]2 [FA]4 [FA]>[FA] | %12
w: |||
w: |||
w: This is|why, yes, why I love|* Him, This is|
w: |||
w: |||
 B4- [=GB]>[GB] [Gc]>[Gd] | !fermata!c6 !fermata![GB]>[GA] | d4- | [Fd]>[Fd] [Ac]>[GB] | %16
w: ||||
w: ||||
w: why I love Him so;|* He has|par-|doned my trans- gress-|
w: ||||
w: ||||
 [FA]2 [DF]4 D>[DE] |"^riten." [DF] [FA]3 [CE] [CA]3 | D6 |] %19
w: |||
w: |||
w: ions, He has washed|me white as snow.||
w: |||
w: |||
V:2
 x2 | x6 | x4 D3/2 x/ | x6 | D4 x2 | x6 | x4 D3/2 x/ | x6 | D4 ||[M:4/4] x2 | G3/2 G/ G3/2 G/ x4 | %11
 x8 | =G3/2 G/ G3/2 G/ x4 | (A2 A2 G2) x2 | (F>F F>F) | x4 | x6 D3/2 x/ | x8 | D6 |] %19
V:3
 [D,A,]>[D,A,] | [D,D]3 [D,D] [D,D][D,D] | [D,D]2 [D,A,]2 [D,F,]>[D,G,] | %3
w: ~ ~|~ ~ ~ ~|~ ~ ~ ~|
 [A,,A,] [A,,F,]3 [A,,G,]>[A,,G,] | [D,F,]4 [D,A,]>[D,A,] | [D,D]3 [D,D] [D,D][D,D] | %6
w: ~ ~ ~ ~|~ ~ ~|~ ~ ~ ~|
 [D,D]2 [D,A,]2 [D,F,]>[D,G,] | [A,,A,] [A,,F,]3 [A,,G,]>[A,,G,] | [D,F,]4 ||[M:4/4] [D,D]>[D,D] | %10
w: ~ ~ ~ ~|~ ~ ~ ~|~|This is|
 [A,E]>[A,E] [A,E]>[A,E] [A,E]>[A,E] [A,C]>[A,C] | [D,D]2 [D,D]4 [D,D]>[D,D] | %12
w: why I love my Je- sus, Why I|love Him, This is|
 [G,D]>[G,D] [G,D]>[G,D] [E,C]>[E,C] [E,C]>[E,C] | [A,E]2 [A,E]2 !fermata![A,E]2 [A,C]>[A,C] | %14
w: why I love my Je- sus, Why I|love Him so; He has|
 [D,D]>[D,D] [D,D]>[D,D] | [D,D]>[D,D] [D,D]>[D,D] | [D,D]2 [D,A,]4 [F,A,]>[G,B,] | %17
w: par- doned, He has|par- doned my trans-|gress- ions, * *|
 A, A,3 [A,,G,] [A,,G,]3 | [D,F,]6 |] %19
w: ||
V:4
 x2 | x6 | x6 | x6 | x6 | x6 | x6 | x6 | x4 ||[M:4/4] x2 | x8 | x8 | x8 | x8 | x4 | x4 | x8 | %17
 A, A,3 x4 | x6 |] %19

